X:85
T:O Then Dearest Helen… JMT.085
M:6/8
L:1/8
Q:50
S:J.Moore,Tyneside,1841.(62)
R:.Air
O:England
A:Northumbria
N:”…I’l love thee no more
Z:vmp.Chris Partington
K:D
a/-g/|fdA B<ed|c>BA d<fa/f/|g>ag f>ga|bBe/d/ {d}cza/f/|!
fdA B<ed|c>BA dfA|((5B/c/d/e/g/) aBg/e/|d>ec d2:|!
“sic too uncertain to alter”a-d|c>dB Azd/c/|\
B/A/B/G/e/d/ c/B/c/A/f/e/|d/c/d/B/g/f/ e/<A/ A/G/|!
F/<A/ d/e/ f<age|d>ec d2zf|gab azd|c>BA c<eA/G/|!
F/A/d/f/a/f/ b<Bg/e/|d>ec d>a/b/a/ (A/B/c/d/e/f/) d>a/b/a/ |!
(A/B/c/d/e/f/) d2za d’/c’/b/a/g/f/e/ \
a/a/b/f/ g/e/d/c/|d2g/f/d/e/c/d2|]

